images/logo.svg

<svg width="170" height="35" viewBox="0 0 170 35" fill="none" xmlns="http://www.w3.org/2000/svg">
    <path d="M2.64205 26H5.07102V23.4858H5.36932C5.9233 24.3807 6.98864 26.3409 10.142 26.3409C14.233 26.3409 17.0881 23.0597 17.0881 17.8608C17.0881 12.7045 14.233 9.4233 10.0994 9.4233C6.90341 9.4233 5.9233 11.3835 5.36932 12.2358H5.15625V4.18182H2.64205V26ZM5.11364 17.8182C5.11364 14.1534 6.73295 11.6818 9.80114 11.6818C12.9972 11.6818 14.5739 14.3665 14.5739 17.8182C14.5739 21.3125 12.9545 24.0824 9.80114 24.0824C6.77557 24.0824 5.11364 21.5256 5.11364 17.8182ZM20.9339 26H23.4482V15.6449C23.4482 13.429 25.1953 11.8097 27.5817 11.8097C28.2528 11.8097 28.9453 11.9375 29.1158 11.9801V9.4233C28.8281 9.40199 28.1676 9.38068 27.7947 9.38068C25.8345 9.38068 24.13 10.4886 23.5334 12.108H23.3629V9.63636H20.9339V26ZM32.0961 26H34.6103V9.63636H32.0961V26ZM33.3745 6.90909C34.3546 6.90909 35.1642 6.14205 35.1642 5.20455C35.1642 4.26705 34.3546 3.5 33.3745 3.5C32.3944 3.5 31.5847 4.26705 31.5847 5.20455C31.5847 6.14205 32.3944 6.90909 33.3745 6.90909ZM45.8203 32.4773C49.7408 32.4773 52.8942 30.6875 52.8942 26.4688V9.63636H50.4652V12.2358H50.2095C49.6555 11.3835 48.6328 9.4233 45.4368 9.4233C41.3033 9.4233 38.4482 12.7045 38.4482 17.733C38.4482 22.8466 41.4311 25.7443 45.3942 25.7443C48.5902 25.7443 49.6129 23.8693 50.1669 22.9744H50.38V26.2983C50.38 29.0256 48.4624 30.2614 45.8203 30.2614C42.848 30.2614 41.804 28.6953 41.1328 27.7898L39.13 29.196C40.1527 30.9112 42.1662 32.4773 45.8203 32.4773ZM45.7351 23.4858C42.5817 23.4858 40.9624 21.0994 40.9624 17.6903C40.9624 14.3665 42.5391 11.6818 45.7351 11.6818C48.8033 11.6818 50.4226 14.1534 50.4226 17.6903C50.4226 21.3125 48.7607 23.4858 45.7351 23.4858ZM60.0107 16.1562C60.0107 13.3011 61.8324 11.6818 64.3146 11.6818C66.6797 11.6818 68.1072 13.1733 68.1072 15.7727V26H70.6214V15.6023C70.6214 11.3942 68.3842 9.4233 65.0391 9.4233C62.4609 9.4233 60.9908 10.4993 60.2237 12.1932H60.0107V4.18182H57.4964V26H60.0107V16.1562ZM82.3375 9.63636H78.8432V5.71591H76.329V9.63636H73.8574V11.767H76.329V21.9943C76.329 24.8494 78.6301 26.2131 80.7608 26.2131C81.6983 26.2131 82.2949 26.0426 82.6358 25.9148L82.1245 23.6562C81.9114 23.6989 81.5705 23.7841 81.0165 23.7841C79.9086 23.7841 78.8432 23.4432 78.8432 21.3125V11.767H82.3375V9.63636Z" fill="#414141"/>
    <path d="M99.2445 14.3026C98.8397 11.2876 96.4107 9.4233 92.2772 9.4233C88.0904 9.4233 85.3311 11.3622 85.3418 14.5156C85.3311 16.9659 86.8759 18.5533 90.0719 19.1925L92.9057 19.7571C94.3333 20.0447 94.9831 20.5668 95.0044 21.3871C94.9831 22.3565 93.9284 23.049 92.3411 23.049C90.7218 23.049 89.6458 22.3565 89.3688 21.0249L84.905 21.2592C85.3311 24.3913 87.9945 26.3196 92.3304 26.3196C96.5705 26.3196 99.6067 24.157 99.6174 20.929C99.6067 18.5639 98.062 17.147 94.8873 16.4972L91.9256 15.9006C90.4022 15.5703 89.8375 15.0483 89.8482 14.2599C89.8375 13.2798 90.9455 12.6406 92.3517 12.6406C93.9284 12.6406 94.8659 13.5036 95.0897 14.5582L99.2445 14.3026ZM102.475 26H107.013V20.8011L108.239 19.4055L112.702 26H118.018L111.637 16.7209L117.71 9.63636H112.5L107.259 15.8473H107.013V4.18182H102.475V26ZM119.936 26H124.474V9.63636H119.936V26ZM122.216 7.52699C123.569 7.52699 124.677 6.49361 124.677 5.22585C124.677 3.96875 123.569 2.93537 122.216 2.93537C120.874 2.93537 119.766 3.96875 119.766 5.22585C119.766 6.49361 120.874 7.52699 122.216 7.52699ZM132.648 4.18182H128.11V26H132.648V4.18182ZM140.822 4.18182H136.284V26H140.822V4.18182ZM158.073 14.3026C157.668 11.2876 155.239 9.4233 151.105 9.4233C146.919 9.4233 144.159 11.3622 144.17 14.5156C144.159 16.9659 145.704 18.5533 148.9 19.1925L151.734 19.7571C153.161 20.0447 153.811 20.5668 153.833 21.3871C153.811 22.3565 152.757 23.049 151.169 23.049C149.55 23.049 148.474 22.3565 148.197 21.0249L143.733 21.2592C144.159 24.3913 146.823 26.3196 151.159 26.3196C155.399 26.3196 158.435 24.157 158.445 20.929C158.435 18.5639 156.89 17.147 153.715 16.4972L150.754 15.9006C149.23 15.5703 148.666 15.0483 148.676 14.2599C148.666 13.2798 149.774 12.6406 151.18 12.6406C152.757 12.6406 153.694 13.5036 153.918 14.5582L158.073 14.3026Z" fill="#F39200"/>
    <path d="M169.057 25.6222C169.057 25.2706 168.769 24.983 168.418 24.983C168.066 24.983 167.778 25.2706 167.778 25.6222C167.778 25.9737 168.066 26.2614 168.418 26.2614C168.769 26.2614 169.057 25.9737 169.057 25.6222ZM169.114 21.2631C169.114 20.0558 168.375 19.2603 167.409 19.1183L167.409 19.9563C168.006 20.1126 168.361 20.6097 168.361 21.2631C168.361 22.2575 167.537 22.8967 166.273 22.8967C165.037 22.8967 164.227 22.2433 164.227 21.2631C164.227 20.5245 164.682 20.0842 165.179 19.9563L165.179 19.1183C164.156 19.2603 163.474 20.1268 163.474 21.2773C163.474 22.7546 164.639 23.7347 166.301 23.7347C167.935 23.7347 169.114 22.7972 169.114 21.2631ZM169.114 15.6772C169.114 14.1999 167.991 13.2056 166.301 13.2056C164.597 13.2056 163.474 14.1999 163.474 15.6772C163.474 17.1545 164.597 18.1488 166.301 18.1488C167.991 18.1488 169.114 17.1545 169.114 15.6772ZM168.361 15.6772C168.361 16.7994 167.395 17.3107 166.301 17.3107C165.207 17.3107 164.227 16.7994 164.227 15.6772C164.227 14.555 165.207 14.0437 166.301 14.0437C167.395 14.0437 168.361 14.555 168.361 15.6772ZM169 11.9263L169 11.0882L165.591 11.0882C164.792 11.0882 164.227 10.5059 164.227 9.85245C164.227 9.2168 164.643 8.7729 165.264 8.7729L169 8.7729L169 7.92063L165.449 7.92063C164.746 7.92063 164.227 7.48029 164.227 6.71325C164.227 6.11665 164.543 5.60529 165.349 5.60529L169 5.60529L169 4.76722L165.349 4.76722C164.067 4.76722 163.474 5.45614 163.474 6.42915C163.474 7.2104 163.833 7.78214 164.398 8.06268L164.398 8.1195C163.815 8.38938 163.474 8.86523 163.474 9.58256C163.474 10.2928 163.815 10.8184 164.398 11.0456L164.398 11.1167L163.545 11.1167L163.545 11.9263L169 11.9263Z" fill="#414141"/>
    <path d="M126.5 35L122 29L131 29L126.5 35Z" fill="#414141"/>
</svg>

<?xml version="1.0" encoding="utf-8"?>
<!-- Generator: Adobe Illustrator 25.0.0, SVG Export Plug-In . SVG Version: 6.00 Build 0)  -->
<svg version="1.1" id="Layer_1" xmlns="http://www.w3.org/2000/svg" xmlns:xlink="http://www.w3.org/1999/xlink" x="0px" y="0px"
	 viewBox="0 0 170 35" style="enable-background:new 0 0 170 35;" xml:space="preserve">
<style type="text/css">
	.st0{fill:#FFFFFF;}
	.st1{fill:#F39200;}
</style>
<path class="st0" d="M2.6,26h2.4v-2.5h0.3c0.6,0.9,1.6,2.9,4.8,2.9c4.1,0,6.9-3.3,6.9-8.5c0-5.2-2.9-8.4-7-8.4c-3.2,0-4.2,2-4.7,2.8
	H5.2V4.2H2.6V26z M5.1,17.8c0-3.7,1.6-6.1,4.7-6.1c3.2,0,4.8,2.7,4.8,6.1c0,3.5-1.6,6.3-4.8,6.3C6.8,24.1,5.1,21.5,5.1,17.8z
	 M20.9,26h2.5V15.6c0-2.2,1.7-3.8,4.1-3.8c0.7,0,1.4,0.1,1.5,0.2V9.4c-0.3,0-0.9,0-1.3,0c-2,0-3.7,1.1-4.3,2.7h-0.2V9.6h-2.4V26z
	 M32.1,26h2.5V9.6h-2.5V26z M33.4,6.9c1,0,1.8-0.8,1.8-1.7s-0.8-1.7-1.8-1.7s-1.8,0.8-1.8,1.7S32.4,6.9,33.4,6.9z M45.8,32.5
	c3.9,0,7.1-1.8,7.1-6V9.6h-2.4v2.6h-0.3c-0.6-0.9-1.6-2.8-4.8-2.8c-4.1,0-7,3.3-7,8.3c0,5.1,3,8,6.9,8c3.2,0,4.2-1.9,4.8-2.8h0.2
	v3.3c0,2.7-1.9,4-4.6,4c-3,0-4-1.6-4.7-2.5l-2,1.4C40.2,30.9,42.2,32.5,45.8,32.5z M45.7,23.5c-3.2,0-4.8-2.4-4.8-5.8
	c0-3.3,1.6-6,4.8-6c3.1,0,4.7,2.5,4.7,6C50.4,21.3,48.8,23.5,45.7,23.5z M60,16.2c0-2.9,1.8-4.5,4.3-4.5c2.4,0,3.8,1.5,3.8,4.1V26
	h2.5V15.6c0-4.2-2.2-6.2-5.6-6.2c-2.6,0-4,1.1-4.8,2.8H60v-8h-2.5V26H60V16.2z M82.3,9.6h-3.5V5.7h-2.5v3.9h-2.5v2.1h2.5V22
	c0,2.9,2.3,4.2,4.4,4.2c0.9,0,1.5-0.2,1.9-0.3l-0.5-2.3c-0.2,0-0.6,0.1-1.1,0.1c-1.1,0-2.2-0.3-2.2-2.5v-9.5h3.5V9.6z"/>
<path class="st1" d="M99.2,14.3c-0.4-3-2.8-4.9-7-4.9c-4.2,0-6.9,1.9-6.9,5.1c0,2.5,1.5,4,4.7,4.7l2.8,0.6c1.4,0.3,2.1,0.8,2.1,1.6
	c0,1-1.1,1.7-2.7,1.7c-1.6,0-2.7-0.7-3-2l-4.5,0.2c0.4,3.1,3.1,5.1,7.4,5.1c4.2,0,7.3-2.2,7.3-5.4c0-2.4-1.6-3.8-4.7-4.4l-3-0.6
	c-1.5-0.3-2.1-0.9-2.1-1.6c0-1,1.1-1.6,2.5-1.6c1.6,0,2.5,0.9,2.7,1.9L99.2,14.3z M102.5,26h4.5v-5.2l1.2-1.4l4.5,6.6h5.3l-6.4-9.3
	l6.1-7.1h-5.2l-5.2,6.2H107V4.2h-4.5V26z M119.9,26h4.5V9.6h-4.5V26z M122.2,7.5c1.4,0,2.5-1,2.5-2.3c0-1.3-1.1-2.3-2.5-2.3
	c-1.3,0-2.5,1-2.5,2.3C119.8,6.5,120.9,7.5,122.2,7.5z M132.6,4.2h-4.5V26h4.5V4.2z M140.8,4.2h-4.5V26h4.5V4.2z M158.1,14.3
	c-0.4-3-2.8-4.9-7-4.9c-4.2,0-6.9,1.9-6.9,5.1c0,2.5,1.5,4,4.7,4.7l2.8,0.6c1.4,0.3,2.1,0.8,2.1,1.6c0,1-1.1,1.7-2.7,1.7
	c-1.6,0-2.7-0.7-3-2l-4.5,0.2c0.4,3.1,3.1,5.1,7.4,5.1c4.2,0,7.3-2.2,7.3-5.4c0-2.4-1.6-3.8-4.7-4.4l-3-0.6
	c-1.5-0.3-2.1-0.9-2.1-1.6c0-1,1.1-1.6,2.5-1.6c1.6,0,2.5,0.9,2.7,1.9L158.1,14.3z"/>
<path class="st0" d="M169.1,25.6c0-0.4-0.3-0.6-0.6-0.6c-0.4,0-0.6,0.3-0.6,0.6c0,0.4,0.3,0.6,0.6,0.6
	C168.8,26.3,169.1,26,169.1,25.6z M169.1,21.3c0-1.2-0.7-2-1.7-2.1V20c0.6,0.2,1,0.7,1,1.3c0,1-0.8,1.6-2.1,1.6c-1.2,0-2-0.7-2-1.6
	c0-0.7,0.5-1.2,1-1.3v-0.8c-1,0.1-1.7,1-1.7,2.2c0,1.5,1.2,2.5,2.8,2.5C167.9,23.7,169.1,22.8,169.1,21.3z M169.1,15.7
	c0-1.5-1.1-2.5-2.8-2.5c-1.7,0-2.8,1-2.8,2.5c0,1.5,1.1,2.5,2.8,2.5C168,18.1,169.1,17.2,169.1,15.7z M168.4,15.7
	c0,1.1-1,1.6-2.1,1.6c-1.1,0-2.1-0.5-2.1-1.6s1-1.6,2.1-1.6C167.4,14,168.4,14.6,168.4,15.7z M169,11.9v-0.8h-3.4
	c-0.8,0-1.4-0.6-1.4-1.2c0-0.6,0.4-1.1,1-1.1h3.7V7.9h-3.6c-0.7,0-1.2-0.4-1.2-1.2c0-0.6,0.3-1.1,1.1-1.1h3.7V4.8h-3.7
	c-1.3,0-1.9,0.7-1.9,1.7c0,0.8,0.4,1.4,0.9,1.6v0.1c-0.6,0.3-0.9,0.7-0.9,1.5c0,0.7,0.3,1.2,0.9,1.5v0.1h-0.9v0.8H169z"/>
<path class="st0" d="M126.5,35l-4.5-6h9L126.5,35z"/>
</svg>
